app/dist/common/images/rli.svg

<svg height="18" width="18" xmlns="http://www.w3.org/2000/svg"><path d="m0 0h18v18h-18z" fill="#0081a7"/><path d="m3 12h1v-2.001h2.05l.95 2.001h1.003l-1.12-2.553c.065-.024.25-.216.421-.407.271-.301.337-.665.337-1.265s-.227-.927-.508-1.22c-.46-.392-.695-.555-2.539-.555h-1.594zm3.05-4.729c.314.308.306 1.135 0 1.468-.238.258-.505.261-1.142.261h-.908v-2h1.166c.564 0 .698.089.884.271zm2.95 4.729h3v-1h-2v-5h-1zm4 0h1v-6h-1z" fill="#fff"/></svg>

<!-- by TradingView --><svg width="18" height="18" xmlns="http://www.w3.org/2000/svg"><path fill="#0081A7" d="M0 0h18v18H0z"/><path d="M3 12h1V9.999h2.05L7 12h1.003l-1.12-2.553c.065-.024.25-.216.421-.407.271-.301.337-.665.337-1.265 0-.6-.227-.927-.508-1.22C6.673 6.163 6.438 6 4.594 6H3v6zm3.05-4.729c.314.308.306 1.135 0 1.468-.238.258-.505.261-1.142.261H4V7h1.166c.564 0 .698.089.884.271zM9 12h3v-1h-2V6H9v6zM13 12h1V6h-1v6z" fill="#fff"/></svg>
